lib/logo_tmp/nrk-logo-nrk-sapmi-title-below-on-dark.svg

<svg width="55" height="39" viewBox="0 0 55 39" fill="none" xmlns="http://www.w3.org/2000/svg">
<path d="M0 14.3333V0.334605H4.59339V14.3333H0ZM10.8428 2.56258L13.4844 14.3333H8.45737L5.30307 0.334605H8.12254C8.76907 0.326214 9.39641 0.554123 9.88691 0.975455C10.3782 1.37911 10.7158 1.93948 10.8428 2.56258ZM14.1744 14.3333V0.334605H18.7678V14.3333H14.1744ZM22.2372 5.65812C21.7422 5.66294 21.2552 5.53343 20.828 5.28346C20.4064 5.03981 20.0563 4.68962 19.8127 4.26803C19.5624 3.84072 19.4329 3.35355 19.4378 2.85837C19.4321 2.3662 19.5618 1.88194 19.8127 1.4585C20.0589 1.04149 20.4086 0.695109 20.828 0.452939C21.2553 0.203253 21.7423 0.073767 22.2372 0.0782812C22.7292 0.0729823 23.2133 0.202584 23.6369 0.452939C24.0521 0.697232 24.3981 1.04332 24.6424 1.4585C24.893 1.88206 25.0226 2.36624 25.0172 2.85837C25.0218 3.35352 24.8923 3.8406 24.6424 4.26803C24.4007 4.68777 24.0542 5.03766 23.6369 5.28346C23.2133 5.53431 22.7289 5.66394 22.2366 5.65812H22.2372ZM25.7269 14.3333V0.334605H30.3207V14.3333H25.7269ZM36.136 7.98461C36.1489 7.99819 36.2475 8.1592 36.4317 8.46765C36.6159 8.7761 36.8558 9.17046 37.1513 9.65067C37.447 10.1307 37.759 10.64 38.0874 11.1787C38.4157 11.7174 38.7247 12.2268 39.0143 12.7067C39.3028 13.1867 39.6313 13.7289 40 14.3333H34.9531C34.6375 13.8207 34.3515 13.3574 34.0952 12.9433C33.8389 12.5293 33.5665 12.0823 33.2778 11.6026C32.9884 11.1233 32.7024 10.6566 32.4196 10.2027C32.1368 9.74879 31.8938 9.35121 31.6905 9.0099C31.4863 8.66837 31.3449 8.43831 31.2663 8.31979C31.0713 8.02568 30.9559 7.68601 30.9315 7.33397C30.951 6.99609 31.0597 6.66947 31.2466 6.3873C31.3254 6.25585 31.47 6.0225 31.6803 5.68732C31.8906 5.35214 32.137 4.95456 32.4196 4.49451C32.7021 4.03446 32.9882 3.56454 33.2778 3.08477C33.5674 2.605 33.8398 2.15477 34.0952 1.73416C34.3519 1.31398 34.6379 0.84735 34.9531 0.334284H40L36.0962 6.70275C35.9754 6.89183 35.9073 7.10974 35.8991 7.33397C35.9121 7.56938 35.9942 7.7957 36.1353 7.98461H36.136Z" fill="white"/>
<path d="M8.50584 27.7702C8.22145 27.4767 7.89152 27.2324 7.52918 27.0472C7.14933 26.8522 6.75398 26.6899 6.34737 26.5619C5.93023 26.4298 5.50051 26.3175 5.05819 26.2248C4.71918 26.1458 4.40342 26.0667 4.11085 25.9874C3.84196 25.9171 3.58028 25.8208 3.32947 25.6999C3.11388 25.5964 2.91353 25.4631 2.73408 25.3037C2.56503 25.1526 2.43423 24.9625 2.3528 24.7494C2.26265 24.4988 2.21962 24.2333 2.22587 23.9667C2.22147 23.6905 2.2644 23.4157 2.3528 23.1545C2.43298 22.9241 2.56701 22.7168 2.74345 22.5503C2.92637 22.3805 3.13406 22.2404 3.35912 22.1347C3.61634 22.0158 3.88934 21.9357 4.16943 21.897C4.50272 21.8488 4.83909 21.8257 5.17574 21.8277C5.48228 21.8283 5.78854 21.8447 6.09343 21.8769C6.402 21.9095 6.7086 21.9592 7.01184 22.0258C7.30621 22.0905 7.59646 22.1732 7.88104 22.2734C8.1475 22.3663 8.40567 22.4822 8.65265 22.6197L8.92614 20.8769C8.64839 20.7299 8.35724 20.6105 8.05686 20.5203C7.75062 20.4281 7.44139 20.3487 7.12907 20.2823C6.81279 20.216 6.49325 20.1665 6.17188 20.1341C5.84632 20.101 5.51432 20.0845 5.17574 20.0845C4.485 20.077 3.79602 20.1567 3.12473 20.3219C2.55316 20.4618 2.01306 20.7107 1.53311 21.0552C1.09074 21.3769 0.734775 21.8058 0.497791 22.3027C0.244933 22.8613 0.121374 23.4711 0.136469 24.0855C0.125285 24.561 0.20144 25.0344 0.361083 25.4817C0.501081 25.8566 0.717251 26.1976 0.995582 26.4823C1.27111 26.7609 1.5874 26.9948 1.93322 27.1756C2.30001 27.3673 2.68243 27.5265 3.07624 27.6514C3.48644 27.7834 3.90637 27.8957 4.3361 27.9881C4.6877 28.0671 5.01325 28.1496 5.31277 28.2357C5.5913 28.3135 5.86248 28.4162 6.12308 28.5427C6.34726 28.6501 6.55471 28.7902 6.73874 28.9587C6.91315 29.1249 7.04969 29.3277 7.13885 29.553C7.24257 29.8243 7.29244 30.1138 7.28565 30.4047C7.29079 30.7141 7.24459 31.0221 7.14894 31.3159C7.06322 31.57 6.93058 31.8053 6.75821 32.0092C6.58496 32.2102 6.37203 32.3721 6.13317 32.4843C5.86333 32.6104 5.57723 32.6972 5.28344 32.7421C4.92486 32.7979 4.56248 32.8244 4.19971 32.8214C3.84703 32.8205 3.49475 32.7973 3.14491 32.752C2.78029 32.7058 2.41553 32.643 2.0507 32.5635C1.69143 32.4859 1.33622 32.39 0.986442 32.2763C0.640919 32.1647 0.312099 32.0492 0 31.93L0.253943 33.891C0.58692 34.017 0.925962 34.126 1.26971 34.2175C1.5817 34.3006 1.8978 34.3667 2.21673 34.4156C2.52275 34.4616 2.8289 34.4979 3.13514 34.5245C3.44138 34.5512 3.75051 34.5644 4.0626 34.5641C4.7619 34.5685 5.45961 34.4955 6.14326 34.3462C6.74836 34.2175 7.32453 33.9757 7.84234 33.6332C8.32567 33.3089 8.71646 32.8614 8.97558 32.3357C9.26075 31.713 9.39779 31.0311 9.37569 30.3449C9.38639 29.8337 9.31053 29.3244 9.15139 28.8392C9.01483 28.4398 8.79462 28.0751 8.50584 27.7702Z" fill="#9FDAF5"/>
<path d="M20.1965 33.0986C20.0537 33.1119 19.9098 33.09 19.7772 33.0348C19.6445 32.9797 19.5269 32.8928 19.4344 32.7817C19.2533 32.4643 19.178 32.0961 19.2198 31.7318L19.2585 27.6513C19.2629 27.2235 19.2103 26.7971 19.1023 26.3836C19.0076 26.0208 18.8487 25.6784 18.6335 25.373C18.4161 25.0747 18.1402 24.8251 17.8232 24.6401C17.4545 24.4281 17.056 24.2746 16.6415 24.1849C16.1345 24.0738 15.6169 24.0207 15.0983 24.0264C14.6868 24.0261 14.2756 24.0524 13.8674 24.1053C13.4818 24.1548 13.1 24.231 12.7247 24.3334C12.3766 24.429 12.0342 24.5448 11.6992 24.6801L11.4648 26.3638C11.7903 26.2452 12.1 26.1462 12.3926 26.0666C12.6853 25.9871 12.9688 25.9214 13.2423 25.8686C13.5103 25.8167 13.7812 25.7805 14.0533 25.76C14.3198 25.7401 14.5834 25.7301 14.8441 25.7299C15.2424 25.7213 15.6399 25.768 16.0258 25.8686C16.3075 25.9401 16.5664 26.0834 16.7782 26.2849C16.9667 26.4807 17.1013 26.7231 17.1688 26.9881C17.2521 27.3146 17.2916 27.6511 17.2861 27.9884L17.2837 28.4853L15.001 28.6421C14.2201 28.6642 13.4507 28.8389 12.7351 29.1567C12.1996 29.3944 11.7372 29.7742 11.3967 30.2561C11.1079 30.685 10.9547 31.1927 10.9573 31.712C10.9536 32.1994 11.0712 32.6799 11.2994 33.1089C11.5382 33.5494 11.8977 33.9104 12.3344 34.1485C12.8672 34.4296 13.4627 34.5661 14.063 34.5447C14.6254 34.5577 15.1853 34.4638 15.7136 34.2677C16.1703 34.0865 16.5882 33.8174 16.9442 33.4753C17.0796 33.344 17.2079 33.2055 17.3287 33.0603C17.3666 33.2655 17.4381 33.4628 17.5403 33.644C17.7143 33.9473 17.9818 34.184 18.3017 34.3175C18.6554 34.4616 19.0341 34.5323 19.4152 34.5255C19.5327 34.5255 19.6463 34.5219 19.757 34.5156C19.8657 34.509 19.9736 34.4923 20.0793 34.4657C20.1834 34.4393 20.2779 34.4166 20.3625 34.3964C20.4391 34.3793 20.5142 34.3561 20.5871 34.3271L20.8021 33.0003C20.6943 33.0377 20.5832 33.0642 20.4703 33.0795C20.3795 33.0915 20.2881 33.0979 20.1965 33.0986ZM16.9439 32.2072C16.7321 32.3771 16.5029 32.5233 16.2602 32.6434C16.0184 32.7624 15.7623 32.849 15.4984 32.9009C15.2249 32.9542 14.9468 32.9806 14.6683 32.9798C14.35 32.9892 14.0335 32.9284 13.7407 32.8015C13.5023 32.6968 13.3011 32.5206 13.1642 32.2967C13.0289 32.0593 12.9613 31.7884 12.9689 31.5143C12.95 31.1839 13.0394 30.8565 13.2231 30.583C13.4357 30.3313 13.7238 30.1573 14.0432 30.0878C14.5423 29.9688 15.0543 29.9156 15.5668 29.9296H17.2772L17.2688 31.8956C17.1694 32.0085 17.0607 32.113 16.9439 32.2072Z" fill="#9FDAF5"/>
<path d="M18.1843 19.312H16.075L14.4146 22.8577H15.9385L18.1843 19.312Z" fill="#9FDAF5"/>
<path d="M30.1679 24.6503C29.4668 24.2151 28.6552 23.9981 27.8337 24.0264C27.3461 24.0288 26.8607 24.0919 26.3882 24.2142C25.8777 24.346 25.3855 24.5425 24.9232 24.7989C24.8314 24.8494 24.7406 24.9055 24.6494 24.9623V24.0462L22.6574 24.3631V38.506H24.6494V34.0712C24.6628 34.0768 24.6752 34.0831 24.6888 34.089C25.0498 34.2408 25.4266 34.3505 25.812 34.4159C26.2671 34.492 26.7278 34.5284 27.1891 34.5248C28.0685 34.5402 28.9356 34.3142 29.6988 33.8708C30.4484 33.4203 31.0576 32.7648 31.4567 31.9794C31.9178 31.0428 32.1425 30.0049 32.1108 28.9586C32.1292 28.074 31.9595 27.1957 31.6131 26.3836C31.3075 25.6758 30.8053 25.0736 30.1679 24.6503ZM29.6503 31.2762C29.4156 31.8022 29.0224 32.2391 28.5271 32.5238C27.9766 32.8163 27.361 32.9597 26.7399 32.9401C26.4423 32.9404 26.145 32.917 25.851 32.8705C25.5425 32.8207 25.2387 32.7446 24.9428 32.643C24.849 32.61 24.7474 32.5724 24.6497 32.5361V26.2848C24.6758 26.2726 24.7025 26.2568 24.7282 26.2449C25.0147 26.1128 25.2817 26.0005 25.5291 25.9078C25.7634 25.8191 26.0054 25.7528 26.2518 25.7097C26.4711 25.6715 26.6931 25.6516 26.9156 25.6503C27.5179 25.63 28.1156 25.7628 28.6544 26.0366C29.1253 26.2966 29.494 26.7125 29.6991 27.2148C29.9476 27.8577 30.064 28.5452 30.0413 29.2353C30.062 29.9366 29.9284 30.6338 29.6503 31.2762Z" fill="#9FDAF5"/>
<path d="M48.0305 24.4424C47.4979 24.1491 46.8977 24.0055 46.292 24.0264C45.7663 24.025 45.2443 24.1154 44.7489 24.2938C44.2457 24.4765 43.7718 24.7334 43.3425 25.0561C43.0992 25.239 42.8677 25.4375 42.6494 25.6503C42.4493 25.1544 42.0962 24.7375 41.6431 24.4618C41.1039 24.1674 40.4971 24.0239 39.8851 24.0462C39.3627 24.0463 38.8442 24.1366 38.3518 24.3133C37.8464 24.4937 37.3693 24.7473 36.9356 25.0663C36.7953 25.1686 36.6592 25.2799 36.5254 25.3964V24.0475L34.533 24.3446V34.3479H36.5254V26.8111C36.76 26.6551 37.0048 26.5153 37.2579 26.3925C37.5677 26.2438 37.8917 26.1275 38.2248 26.0455C38.5316 25.9689 38.8464 25.9291 39.1624 25.927C39.4526 25.918 39.7416 25.9685 40.012 26.0755C40.2358 26.1717 40.4335 26.3211 40.5883 26.511C40.758 26.732 40.875 26.9897 40.9301 27.2641C41.0063 27.6185 41.0424 27.9806 41.0376 28.3433V34.3456H43.0299V27.9273C43.0313 27.5484 43.0061 27.1699 42.9544 26.7946C43.1803 26.6444 43.4143 26.5068 43.6551 26.3826C43.9596 26.2269 44.2807 26.1073 44.6122 26.0261C44.9255 25.9481 45.2467 25.908 45.5693 25.9068C45.8562 25.8999 46.1417 25.9505 46.4093 26.0558C46.637 26.1498 46.8383 26.2995 46.9952 26.4915C47.1651 26.7122 47.2822 26.9699 47.337 27.2443C47.4132 27.5988 47.4493 27.961 47.4445 28.3238V34.3456H49.4369V27.9078C49.462 27.1587 49.3426 26.4118 49.0853 25.7091C48.8825 25.1796 48.5113 24.7338 48.0305 24.4424Z" fill="#9FDAF5"/>
<path d="M52.3864 34.3466H54.3788V24.0462L52.3864 24.3433V34.3466Z" fill="#9FDAF5"/>
<path d="M54.5741 20.3912C54.4581 20.1881 54.2935 20.0178 54.0955 19.896C53.8928 19.7705 53.6593 19.7053 53.4217 19.7082C53.1811 19.7061 52.9446 19.7711 52.738 19.896C52.5343 20.017 52.3631 20.1871 52.2399 20.3912C52.116 20.597 52.0516 20.8339 52.0543 21.0749C52.0523 21.3189 52.1165 21.5587 52.2399 21.7682C52.3591 21.9756 52.5312 22.1466 52.738 22.2634C52.9466 22.3825 53.1823 22.444 53.4217 22.4417C53.658 22.4448 53.8908 22.3832 54.0955 22.2634C54.2966 22.1457 54.4621 21.9745 54.5741 21.7682C54.6915 21.5567 54.7522 21.3177 54.7499 21.0749C54.7528 20.8352 54.6921 20.5991 54.5741 20.3912Z" fill="#9FDAF5"/>
</svg>

<svg xmlns="http://www.w3.org/2000/svg" viewBox="0 0 55 39"><path fill="#fff" d="M0 14.333V.335h4.593v13.998H0Zm10.843-11.77 2.641 11.77H8.457L5.303.335h2.82a2.655 2.655 0 0 1 1.764.64c.491.404.829.964.956 1.588Zm3.331 11.77V.335h4.594v13.998h-4.594Zm8.063-8.675a2.738 2.738 0 0 1-1.409-.375 2.778 2.778 0 0 1-1.015-1.015 2.735 2.735 0 0 1-.375-1.41 2.685 2.685 0 0 1 .375-1.4A2.812 2.812 0 0 1 23.637.454c.415.244.761.59 1.005 1.005.251.424.38.908.375 1.4.005.496-.125.983-.375 1.41a2.8 2.8 0 0 1-1.005 1.015c-.424.251-.908.38-1.4.375Zm3.49 8.675V.335h4.594v13.998h-4.594Zm10.409-6.348c.013.013.111.174.296.483.184.308.424.702.72 1.183a386.846 386.846 0 0 1 1.862 3.056c.289.48.617 1.022.986 1.626h-5.047l-.858-1.39c-.256-.414-.529-.86-.817-1.34-.29-.48-.576-.946-.858-1.4a71.148 71.148 0 0 1-.73-1.193 21.112 21.112 0 0 0-.424-.69 2.04 2.04 0 0 1-.334-.986c.019-.338.128-.665.315-.947.078-.131.223-.364.433-.7a216.7 216.7 0 0 0 1.598-2.603l.817-1.35.858-1.4H40l-3.904 6.369c-.12.189-.189.407-.197.631.013.235.095.462.236.65h.001Z"/><path fill="#9FDAF5" d="M8.506 27.77a3.714 3.714 0 0 0-.977-.723 7.555 7.555 0 0 0-1.182-.485 13.311 13.311 0 0 0-1.289-.337 27.426 27.426 0 0 1-.947-.238 4.31 4.31 0 0 1-.782-.287 2.574 2.574 0 0 1-.595-.396 1.426 1.426 0 0 1-.381-.555 2.163 2.163 0 0 1-.127-.782 2.414 2.414 0 0 1 .127-.813c.08-.23.214-.437.39-.604.183-.17.391-.31.616-.415.257-.12.53-.2.81-.238a6.75 6.75 0 0 1 1.007-.07c.306.001.613.018.917.05.309.033.616.082.919.149a7.4 7.4 0 0 1 .869.247c.267.093.525.21.772.347l.273-1.743a4.825 4.825 0 0 0-.87-.357 11.544 11.544 0 0 0-.927-.238 9.13 9.13 0 0 0-.957-.148 9.843 9.843 0 0 0-.996-.05 8.21 8.21 0 0 0-2.051.238 4.609 4.609 0 0 0-1.592.733c-.442.322-.798.75-1.035 1.248a4.081 4.081 0 0 0-.362 1.782c-.01.476.065.95.225 1.397.14.375.356.716.635 1 .275.279.591.513.937.694.367.191.75.35 1.143.475.41.132.83.245 1.26.337.352.08.677.162.977.248.278.078.55.18.81.307.224.107.432.247.616.416.174.166.31.369.4.594.104.271.153.56.147.852.005.31-.041.617-.137.91-.086.255-.218.49-.39.694a1.882 1.882 0 0 1-.626.475 3.12 3.12 0 0 1-.85.258 6.688 6.688 0 0 1-1.083.08 8.38 8.38 0 0 1-1.055-.07c-.365-.046-.73-.109-1.094-.189-.36-.077-.715-.173-1.065-.287A19.966 19.966 0 0 1 0 31.93l.254 1.961c.333.126.672.235 1.016.327.312.083.628.149.947.198.306.046.612.082.918.109.306.026.616.04.928.04.699.004 1.397-.07 2.08-.219a4.944 4.944 0 0 0 1.7-.713 3.34 3.34 0 0 0 1.133-1.297 4.44 4.44 0 0 0 .4-1.991 4.528 4.528 0 0 0-.225-1.506 2.935 2.935 0 0 0-.645-1.069ZM20.197 33.099a.879.879 0 0 1-.763-.317 1.723 1.723 0 0 1-.214-1.05l.039-4.08a4.82 4.82 0 0 0-.157-1.268 3.125 3.125 0 0 0-.468-1.011 2.666 2.666 0 0 0-.81-.733 4.118 4.118 0 0 0-1.183-.455 6.857 6.857 0 0 0-1.543-.159c-.411 0-.822.026-1.23.08-.386.049-.768.125-1.143.227-.348.096-.69.212-1.026.347l-.234 1.684a11.665 11.665 0 0 1 1.777-.495c.268-.052.54-.088.811-.109.267-.02.53-.03.791-.03.398-.009.796.038 1.182.139.282.071.54.214.752.416.189.196.323.438.39.703.084.327.124.663.118 1l-.002.497-2.283.157a6 6 0 0 0-2.266.515 3.259 3.259 0 0 0-1.338 1.1 2.584 2.584 0 0 0-.44 1.455c-.003.487.114.968.342 1.397.24.44.599.801 1.035 1.04a3.44 3.44 0 0 0 1.729.396 4.447 4.447 0 0 0 1.65-.277c.457-.181.875-.45 1.231-.793.136-.131.264-.27.385-.415.038.206.11.403.211.584.174.303.442.54.762.674.353.144.732.214 1.113.208.118 0 .231-.004.342-.01.109-.007.217-.024.322-.05.104-.027.199-.05.284-.07a1.48 1.48 0 0 0 .224-.069L20.802 33a1.714 1.714 0 0 1-.332.08c-.09.012-.182.018-.273.019Zm-3.253-.892c-.212.17-.441.316-.684.436a3.064 3.064 0 0 1-.762.258c-.273.053-.551.08-.83.079a2.17 2.17 0 0 1-.927-.178 1.28 1.28 0 0 1-.577-.505 1.497 1.497 0 0 1-.195-.783c-.019-.33.07-.657.254-.931.213-.252.5-.426.82-.495a5.876 5.876 0 0 1 1.524-.158h1.71l-.008 1.966a2.65 2.65 0 0 1-.325.311ZM18.184 19.312h-2.109l-1.66 3.546h1.524l2.245-3.546ZM30.168 24.65a4.153 4.153 0 0 0-2.334-.624 5.883 5.883 0 0 0-1.446.188 6.233 6.233 0 0 0-1.739.748v-.916l-1.992.317v14.143h1.992v-4.435l.04.018c.36.152.738.261 1.123.327.455.076.916.112 1.377.109.88.015 1.747-.21 2.51-.654a4.676 4.676 0 0 0 1.758-1.892 6.402 6.402 0 0 0 .654-3.02 6.234 6.234 0 0 0-.498-2.575 3.966 3.966 0 0 0-1.445-1.734Zm-.518 6.626a2.712 2.712 0 0 1-1.123 1.248 3.568 3.568 0 0 1-1.787.416 5.491 5.491 0 0 1-1.797-.297c-.094-.033-.196-.07-.293-.107v-6.251c.026-.012.053-.028.078-.04.287-.132.554-.245.801-.337a3.976 3.976 0 0 1 1.387-.258c.602-.02 1.2.113 1.738.387.471.26.84.675 1.045 1.178.249.643.365 1.33.342 2.02a4.783 4.783 0 0 1-.39 2.041ZM48.03 24.442a3.362 3.362 0 0 0-1.738-.416 4.518 4.518 0 0 0-1.543.268c-.503.183-.977.44-1.407.762a7.136 7.136 0 0 0-.693.594 2.473 2.473 0 0 0-1.006-1.188 3.408 3.408 0 0 0-1.758-.416c-.522 0-1.04.09-1.533.267a5.525 5.525 0 0 0-1.827 1.083v-1.349l-1.992.298v10.003h1.992V26.81a6.25 6.25 0 0 1 .733-.419c.31-.148.634-.264.967-.346a3.98 3.98 0 0 1 .937-.119c.29-.009.58.041.85.149.224.096.422.245.576.435.17.221.287.479.342.753.076.355.112.717.108 1.08v6.002h1.992v-6.419a8.081 8.081 0 0 0-.076-1.132c.226-.15.46-.288.701-.412.305-.156.626-.276.957-.357.313-.078.635-.118.957-.12.287-.006.573.045.84.15.228.094.43.243.586.435.17.221.287.479.342.753.076.355.112.717.107 1.08v6.022h1.993v-6.438a5.828 5.828 0 0 0-.352-2.199 2.543 2.543 0 0 0-1.054-1.267ZM52.386 34.347h1.993v-10.3l-1.993.296v10.004ZM54.574 20.391a1.39 1.39 0 0 0-.478-.495 1.25 1.25 0 0 0-.674-.188 1.3 1.3 0 0 0-.684.188 1.443 1.443 0 0 0-.498.495 1.298 1.298 0 0 0-.186.684c-.002.244.063.484.186.693a1.352 1.352 0 0 0 1.182.674 1.282 1.282 0 0 0 1.152-.674c.117-.211.178-.45.176-.693a1.352 1.352 0 0 0-.176-.684Z"/></svg>
